build/svg/cmd/lc_bezier_unfilled.svg

<?xml version="1.0" encoding="UTF-8" standalone="no"?>
<svg
   xmlns:dc="http://purl.org/dc/elements/1.1/"
   xmlns:cc="http://creativecommons.org/ns#"
   xmlns:rdf="http://www.w3.org/1999/02/22-rdf-syntax-ns#"
   xmlns:svg="http://www.w3.org/2000/svg"
   xmlns="http://www.w3.org/2000/svg"
   xmlns:sodipodi="http://sodipodi.sourceforge.net/DTD/sodipodi-0.dtd"
   xmlns:inkscape="http://www.inkscape.org/namespaces/inkscape"
   viewBox="0 0 24 24"
   version="1.1"
   id="svg6"
   sodipodi:docname="lc_bezier_unfilled.svg"
   inkscape:version="0.92.4 (5da689c313, 2019-01-14)"
   inkscape:export-filename="/home/jupiter007/Libreoffice yaru theme fullcolor/build/cmd/lc_bezier_unfilled.png"
   inkscape:export-xdpi="95"
   inkscape:export-ydpi="95">
  <metadata
     id="metadata12">
    <rdf:RDF>
      <cc:Work
         rdf:about="">
        <dc:format>image/svg+xml</dc:format>
        <dc:type
           rdf:resource="http://purl.org/dc/dcmitype/StillImage" />
      </cc:Work>
    </rdf:RDF>
  </metadata>
  <defs
     id="defs10" />
  <sodipodi:namedview
     pagecolor="#ffffff"
     bordercolor="#666666"
     borderopacity="1"
     objecttolerance="10"
     gridtolerance="10"
     guidetolerance="10"
     inkscape:pageopacity="0"
     inkscape:pageshadow="2"
     inkscape:window-width="1920"
     inkscape:window-height="1011"
     id="namedview8"
     showgrid="true"
     inkscape:zoom="55.625733"
     inkscape:cx="7.9364596"
     inkscape:cy="15.766783"
     inkscape:window-x="1920"
     inkscape:window-y="32"
     inkscape:window-maximized="1"
     inkscape:current-layer="svg6">
    <inkscape:grid
       type="xygrid"
       id="grid822" />
  </sodipodi:namedview>
  <path
     d="M 17.5,5.5000001 A 13,13 0 0 0 4.5,18.5 h 1 a 12,12 0 0 1 12,-11.9999999 12,12 0 0 1 1,0.050781 V 5.5429689 a 13,13 0 0 0 -1,-0.042969 z"
     id="path2"
     style="fill:#1463a5;fill-opacity:1;stroke:#1463a5;stroke-opacity:1"
     inkscape:connector-curvature="0" />
  <path
     style="opacity:1;fill:#808080;fill-opacity:1;fill-rule:nonzero;stroke:none;stroke-width:2;stroke-linecap:round;stroke-linejoin:round;stroke-miterlimit:4;stroke-dasharray:none;stroke-opacity:1"
     d="M 4 4 C 3.4459999 4 3 4.4459999 3 5 L 3 7 C 3 7.5540001 3.4459999 8 4 8 L 6 8 C 6.5540001 8 7 7.5540001 7 7 L 19 7 L 19 5 L 7 5 C 7 4.4459999 6.5540001 4 6 4 L 4 4 z "
     id="rect878" />
  <rect
     style="opacity:0.7;vector-effect:none;fill:#000000;fill-opacity:1;stroke:none;stroke-width:1;stroke-linecap:round;stroke-linejoin:round;stroke-miterlimit:4;stroke-dasharray:none;stroke-dashoffset:0;stroke-opacity:1"
     id="rect9084-4"
     width="4"
     height="4"
     x="18"
     y="4" />
  <rect
     style="opacity:1;vector-effect:none;fill:#aee3f8;fill-opacity:1;stroke:none;stroke-width:1;stroke-linecap:round;stroke-linejoin:round;stroke-miterlimit:4;stroke-dasharray:none;stroke-dashoffset:0;stroke-opacity:1"
     id="rect9101-4"
     width="2"
     height="2"
     x="19"
     y="5" />
  <rect
     style="opacity:1;fill:#ffffff;fill-opacity:1;fill-rule:nonzero;stroke:none;stroke-width:2;stroke-linecap:round;stroke-linejoin:round;stroke-miterlimit:4;stroke-dasharray:none;stroke-opacity:1"
     id="rect858"
     width="2"
     height="1.9570312"
     x="4"
     y="5.0429688" />
  <rect
     style="opacity:0.7;vector-effect:none;fill:#000000;fill-opacity:1;stroke:none;stroke-width:1;stroke-linecap:round;stroke-linejoin:round;stroke-miterlimit:4;stroke-dasharray:none;stroke-dashoffset:0;stroke-opacity:1"
     id="rect9084-4-4"
     width="4"
     height="4"
     x="3"
     y="18" />
  <rect
     style="opacity:1;vector-effect:none;fill:#aee3f8;fill-opacity:1;stroke:none;stroke-width:1;stroke-linecap:round;stroke-linejoin:round;stroke-miterlimit:4;stroke-dasharray:none;stroke-dashoffset:0;stroke-opacity:1"
     id="rect9101-4-4"
     width="2"
     height="2"
     x="4"
     y="19" />
</svg>

<svg xmlns="http://www.w3.org/2000/svg" viewBox="0 0 24 24"><path d="M17.5 5.5a13 13 0 00-13 13h1a12 12 0 0112-12 12 12 0 011 .05V5.544a13 13 0 00-1-.043z" fill="#1463a5" stroke="#1463a5"/><path d="M4 4c-.554 0-1 .446-1 1v2c0 .554.446 1 1 1h2c.554 0 1-.446 1-1h12V5H7c0-.554-.446-1-1-1H4z" fill="gray"/><path opacity=".7" d="M18 4h4v4h-4z"/><path fill="#aee3f8" d="M19 5h2v2h-2z"/><path fill="#fff" d="M4 5.043h2V7H4z"/><path opacity=".7" d="M3 18h4v4H3z"/><path fill="#aee3f8" d="M4 19h2v2H4z"/></svg>
